X: 20383
T: The EWE BUGHTS MARION
Q: "Andante"
%R: march
B: "Edinburgh Repository of Music" v.2 p.39 #1
F: http://digital.nls.uk/special-collections-of-printed-music/pageturner.cfm?id=87776133
Z: 2015 John Chambers <jc:trillian.mit.edu>
M: 2/4
L: 1/8
K: G
E>F |\
G2 A>B | g2 f>g | e2 E>F |\
G2 A>B | g2 f>g | e3 z/g/ |\
(d>B) B<B | c2 B>c | A2 B>d |
e2 E>c | (BA) (GF) | G3 g |\
(d>B) B>B | c2 B>c | A2 B>d |\
e2 E>c | (BA) (GF) | G3 |]

%%sep 2 1 500
%%sep 1 1 500

